img/img_elements_visuels/poisson_10_mauve.svg

<svg width="969" height="678" viewBox="0 0 969 678" fill="none" xmlns="http://www.w3.org/2000/svg">
<path d="M337.953 40.2571C333.352 49.4584 356.356 129.97 363.257 166.775C453.736 161.408 634.234 148.832 632.394 141.47C630.094 132.269 639.295 95.4651 480.572 28.7554C321.849 -37.9542 342.554 31.0558 337.953 40.2571Z" fill="#511797"/>
<path d="M542.72 95.4639C338.47 95.4639 206.355 253.507 165.829 332.528L103.316 212.781C97.236 198.598 9.26575 230.481 4.40265 371.504C-0.460447 512.527 103.317 583.134 135.435 587.828C160.826 537.128 169.477 423.707 184.066 448.021C202.303 478.414 329.959 606.064 627.824 636.456C866.116 660.771 954.057 443.968 968.241 332.528C952.031 332.528 917.178 324.018 907.452 289.978C895.294 247.428 798.032 95.4639 542.72 95.4639Z" fill="#9973C7"/>
<path d="M685.302 254.187C698.183 191.618 741.276 156.039 761.212 146.071C759.679 144.538 763.513 145.151 791.117 159.873C818.721 174.595 876.229 224.282 894.632 258.787C903.833 270.289 918.095 309.395 929.137 318.596C940.178 327.797 958.274 330.865 968.242 332.398L959.041 385.306L940.638 438.213C917.635 462.75 867.948 515.965 862.427 523.326C855.526 532.527 811.82 560.131 722.107 523.326C632.394 486.521 669.199 332.398 685.302 254.187Z" fill="#511797"/>
<ellipse cx="34.6389" cy="27.8473" rx="34.6389" ry="27.8473" transform="matrix(0.990482 -0.137644 0.282855 0.959163 770.414 285.576)" fill="white"/>
<ellipse cx="28.3356" cy="20.8374" rx="28.3356" ry="20.8374" transform="matrix(0.992052 -0.125828 0.259906 0.965634 782.585 289.487)" fill="black"/>
<path d="M641.595 518.725C764.893 513.204 890.798 461.217 938.338 435.913C938.338 475.019 850.925 576.233 827.922 590.035C804.919 603.837 754.509 635.275 676.298 641.793C621.09 646.394 503.773 623.39 374.954 584.285C271.899 553 205.298 475.786 181.528 445.114C202.998 455.083 251.919 477.319 275.842 486.52C305.746 498.022 487.473 525.626 641.595 518.725Z" fill="#DFC5FF"/>
<path d="M55.0117 261.087C62.3728 242.684 92.5833 224.282 105.619 217.381C104.085 214.313 104.174 212.373 101.018 210.48C89.5162 203.578 61.9122 221.982 48.1102 238.084C37.0683 250.965 18.2048 280.257 13.605 295.593C6.70404 309.395 -11.9066 362.158 11.3076 440.513C48.11 564.732 98.7166 572.399 135.522 587.735L140.123 578.534L144.723 567.032L126.324 557.83C122.49 554.763 103.319 536.207 57.3121 486.52C-0.196263 424.411 45.8104 284.09 55.0117 261.087Z" fill="#511797"/>
<path d="M517.378 419.81C543.142 410.609 537.314 304.794 526.579 251.886C521.978 242.686 519.218 242.684 489.774 233.483C452.969 221.981 397.761 286.391 393.16 288.691C389.479 290.531 290.412 343.132 241.338 369.203C250.539 386.072 287.805 415.669 363.256 399.107C457.569 378.404 485.173 431.312 517.378 419.81Z" fill="#511797"/>
<ellipse cx="751.315" cy="571.127" rx="29.7041" ry="11.9718" transform="rotate(174.138 751.315 571.127)" fill="#511797"/>
<ellipse cx="812.89" cy="507.214" rx="29.7041" ry="11.9718" transform="rotate(174.138 812.89 507.214)" fill="#511797"/>
<ellipse cx="675.213" cy="589.613" rx="17.8225" ry="6.84106" transform="rotate(174.138 675.213 589.613)" fill="#511797"/>
<ellipse cx="632.648" cy="573.879" rx="17.8225" ry="6.84106" transform="rotate(174.138 632.648 573.879)" fill="#511797"/>
<ellipse cx="878.756" cy="505.498" rx="17.8225" ry="6.84106" transform="rotate(174.138 878.756 505.498)" fill="#511797"/>
<ellipse cx="677.025" cy="544.709" rx="44.5561" ry="13.6821" transform="rotate(174.138 677.025 544.709)" fill="#511797"/>
<ellipse cx="716.769" cy="616.293" rx="44.5561" ry="13.6821" transform="rotate(174.138 716.769 616.293)" fill="#511797"/>
<ellipse cx="844.151" cy="548.195" rx="17.8225" ry="6.84106" transform="rotate(174.138 844.151 548.195)" fill="#511797"/>
<ellipse cx="809.635" cy="575.348" rx="11.8816" ry="6.84106" transform="rotate(174.138 809.635 575.348)" fill="#511797"/>
<ellipse cx="785.149" cy="533.591" rx="11.8816" ry="6.84106" transform="rotate(174.138 785.149 533.591)" fill="#511797"/>
<ellipse cx="748.627" cy="523.294" rx="11.8816" ry="6.84106" transform="rotate(174.138 748.627 523.294)" fill="#511797"/>
<ellipse cx="841.355" cy="520.977" rx="11.8816" ry="3.42053" transform="rotate(174.138 841.355 520.977)" fill="#511797"/>
<ellipse cx="514.217" cy="533.932" rx="11.8816" ry="3.42053" transform="rotate(174.138 514.217 533.932)" fill="#511797"/>
<ellipse cx="521.212" cy="601.985" rx="11.8816" ry="3.42053" transform="rotate(174.138 521.212 601.985)" fill="#511797"/>
<ellipse cx="286.161" cy="522.961" rx="11.8816" ry="3.42053" transform="rotate(174.138 286.161 522.961)" fill="#511797"/>
<ellipse cx="463.239" cy="585.426" rx="29.7041" ry="11.9718" transform="rotate(174.138 463.239 585.426)" fill="#511797"/>
<ellipse cx="250.078" cy="492.668" rx="19.3627" ry="7.66069" transform="rotate(174.138 250.078 492.668)" fill="#511797"/>
<ellipse cx="418.615" cy="530.03" rx="44.5561" ry="13.6821" transform="rotate(-172.533 418.615 530.03)" fill="#511797"/>
<ellipse cx="597.802" cy="611.648" rx="44.5561" ry="13.6821" transform="rotate(174.138 597.802 611.648)" fill="#511797"/>
<ellipse cx="593.151" cy="546.461" rx="17.8225" ry="6.84106" transform="rotate(174.138 593.151 546.461)" fill="#511797"/>
<ellipse cx="624.41" cy="532.495" rx="11.8816" ry="6.84106" transform="rotate(174.138 624.41 532.495)" fill="#511797"/>
<ellipse cx="399.516" cy="580.094" rx="11.8816" ry="6.84106" transform="rotate(174.138 399.516 580.094)" fill="#511797"/>
<ellipse cx="390.817" cy="553.479" rx="11.8816" ry="6.84106" transform="rotate(174.138 390.817 553.479)" fill="#511797"/>
<ellipse cx="348.049" cy="544.115" rx="11.8816" ry="3.42053" transform="rotate(174.138 348.049 544.115)" fill="#511797"/>
<ellipse cx="849.491" cy="487.685" rx="11.8816" ry="3.42053" transform="rotate(174.138 849.491 487.685)" fill="#511797"/>
<ellipse cx="432.714" cy="554.338" rx="5.94082" ry="1.70843" transform="rotate(174.138 432.714 554.338)" fill="#511797"/>
<ellipse cx="546.738" cy="559.822" rx="5.94082" ry="1.70843" transform="rotate(174.138 546.738 559.822)" fill="#511797"/>
<ellipse cx="702.055" cy="566.478" rx="5.94082" ry="1.70843" transform="rotate(174.138 702.055 566.478)" fill="#511797"/>
<ellipse cx="912.415" cy="462.373" rx="5.94082" ry="1.70843" transform="rotate(174.138 912.415 462.373)" fill="#511797"/>
<ellipse cx="331.464" cy="516.112" rx="26.7337" ry="11.9718" transform="rotate(174.138 331.464 516.112)" fill="#511797"/>
<ellipse cx="495.808" cy="558.173" rx="26.7337" ry="8.55132" transform="rotate(174.138 495.808 558.173)" fill="#511797"/>
<ellipse cx="561.149" cy="535.714" rx="26.7337" ry="8.55132" transform="rotate(174.138 561.149 535.714)" fill="#511797"/>
<ellipse cx="884.962" cy="480.394" rx="11.8816" ry="5.13079" transform="rotate(174.138 884.962 480.394)" fill="#511797"/>
<ellipse cx="563.958" cy="582.123" rx="26.7337" ry="8.55132" transform="rotate(174.138 563.958 582.123)" fill="#511797"/>
</svg>

<svg xmlns="http://www.w3.org/2000/svg" width="969" height="678" fill="none"><path fill="#511797" d="M337.953 40.257c-4.601 9.201 18.403 89.713 25.304 126.518 90.479-5.367 270.977-17.943 269.137-25.305-2.3-9.201 6.901-46.005-151.822-112.715-158.723-66.71-138.018 2.3-142.619 11.502Z"/><path fill="#9973C7" d="M542.72 95.464c-204.25 0-336.365 158.043-376.891 237.064l-62.513-119.747c-6.08-14.183-94.05 17.7-98.913 158.723-4.863 141.023 98.914 211.63 131.032 216.324 25.391-50.7 34.042-164.121 48.631-139.807 18.237 30.393 145.893 158.043 443.758 188.435 238.292 24.315 326.233-192.488 340.417-303.928-16.21 0-51.063-8.51-60.789-42.55-12.158-42.55-109.42-194.514-364.732-194.514Z"/><path fill="#511797" d="M685.302 254.187c12.881-62.569 55.974-98.148 75.91-108.116-1.533-1.533 2.301-.92 29.905 13.802s85.112 64.409 103.515 98.914c9.201 11.502 23.463 50.608 34.505 59.809 11.041 9.201 29.137 12.269 39.105 13.802l-9.201 52.908-18.403 52.907c-23.003 24.537-72.69 77.752-78.211 85.113-6.901 9.201-50.607 36.805-140.32 0s-52.908-190.928-36.805-269.139Z"/><ellipse cx="34.639" cy="27.847" fill="#fff" rx="34.639" ry="27.847" transform="matrix(.99048 -.13764 .28286 .95916 770.414 285.576)"/><ellipse cx="28.336" cy="20.837" fill="#000" rx="28.336" ry="20.837" transform="matrix(.99205 -.12583 .2599 .96563 782.585 289.487)"/><path fill="#DFC5FF" d="M641.595 518.725c123.298-5.521 249.203-57.508 296.743-82.812 0 39.106-87.413 140.32-110.416 154.122-23.003 13.802-73.413 45.24-151.624 51.758-55.208 4.601-172.525-18.403-301.344-57.508C271.899 553 205.298 475.786 181.528 445.114c21.47 9.969 70.391 32.205 94.314 41.406 29.904 11.502 211.631 39.106 365.753 32.205Z"/><path fill="#511797" d="M55.012 261.087c7.36-18.403 37.571-36.805 50.607-43.706-1.534-3.068-1.445-5.008-4.601-6.901-11.502-6.902-39.106 11.502-52.908 27.604-11.042 12.881-29.905 42.173-34.505 57.509-6.901 13.802-25.512 66.565-2.297 144.92C48.11 564.732 98.717 572.399 135.522 587.735l4.601-9.201 4.6-11.502-18.399-9.202c-3.834-3.067-23.005-21.623-69.012-71.31-57.508-62.109-11.502-202.43-2.3-225.433ZM517.378 419.81c25.764-9.201 19.936-115.016 9.201-167.924-4.601-9.2-7.361-9.202-36.805-18.403-36.805-11.502-92.013 52.908-96.614 55.208-3.681 1.84-102.748 54.441-151.822 80.512 9.201 16.869 46.467 46.466 121.918 29.904 94.313-20.703 121.917 32.205 154.122 20.703Z"/><ellipse cx="751.315" cy="571.127" fill="#511797" rx="29.704" ry="11.972" transform="rotate(174.138 751.315 571.127)"/><ellipse cx="812.89" cy="507.214" fill="#511797" rx="29.704" ry="11.972" transform="rotate(174.138 812.89 507.214)"/><ellipse cx="675.213" cy="589.613" fill="#511797" rx="17.823" ry="6.841" transform="rotate(174.138 675.213 589.613)"/><ellipse cx="632.648" cy="573.879" fill="#511797" rx="17.823" ry="6.841" transform="rotate(174.138 632.648 573.879)"/><ellipse cx="878.756" cy="505.498" fill="#511797" rx="17.823" ry="6.841" transform="rotate(174.138 878.756 505.498)"/><ellipse cx="677.025" cy="544.709" fill="#511797" rx="44.556" ry="13.682" transform="rotate(174.138 677.025 544.709)"/><ellipse cx="716.769" cy="616.293" fill="#511797" rx="44.556" ry="13.682" transform="rotate(174.138 716.769 616.293)"/><ellipse cx="844.151" cy="548.195" fill="#511797" rx="17.823" ry="6.841" transform="rotate(174.138 844.151 548.195)"/><ellipse cx="809.635" cy="575.348" fill="#511797" rx="11.882" ry="6.841" transform="rotate(174.138 809.635 575.348)"/><ellipse cx="785.149" cy="533.591" fill="#511797" rx="11.882" ry="6.841" transform="rotate(174.138 785.149 533.591)"/><ellipse cx="748.627" cy="523.294" fill="#511797" rx="11.882" ry="6.841" transform="rotate(174.138 748.627 523.294)"/><ellipse cx="841.355" cy="520.977" fill="#511797" rx="11.882" ry="3.421" transform="rotate(174.138 841.355 520.977)"/><ellipse cx="514.217" cy="533.932" fill="#511797" rx="11.882" ry="3.421" transform="rotate(174.138 514.217 533.932)"/><ellipse cx="521.212" cy="601.985" fill="#511797" rx="11.882" ry="3.421" transform="rotate(174.138 521.212 601.985)"/><ellipse cx="286.161" cy="522.961" fill="#511797" rx="11.882" ry="3.421" transform="rotate(174.138 286.161 522.961)"/><ellipse cx="463.239" cy="585.426" fill="#511797" rx="29.704" ry="11.972" transform="rotate(174.138 463.239 585.426)"/><ellipse cx="250.078" cy="492.668" fill="#511797" rx="19.363" ry="7.661" transform="rotate(174.138 250.078 492.668)"/><ellipse cx="418.615" cy="530.03" fill="#511797" rx="44.556" ry="13.682" transform="rotate(-172.533 418.615 530.03)"/><ellipse cx="597.802" cy="611.648" fill="#511797" rx="44.556" ry="13.682" transform="rotate(174.138 597.802 611.648)"/><ellipse cx="593.151" cy="546.461" fill="#511797" rx="17.823" ry="6.841" transform="rotate(174.138 593.151 546.461)"/><ellipse cx="624.41" cy="532.495" fill="#511797" rx="11.882" ry="6.841" transform="rotate(174.138 624.41 532.495)"/><ellipse cx="399.516" cy="580.094" fill="#511797" rx="11.882" ry="6.841" transform="rotate(174.138 399.516 580.094)"/><ellipse cx="390.817" cy="553.479" fill="#511797" rx="11.882" ry="6.841" transform="rotate(174.138 390.817 553.479)"/><ellipse cx="348.049" cy="544.115" fill="#511797" rx="11.882" ry="3.421" transform="rotate(174.138 348.049 544.115)"/><ellipse cx="849.491" cy="487.685" fill="#511797" rx="11.882" ry="3.421" transform="rotate(174.138 849.491 487.685)"/><ellipse cx="432.714" cy="554.338" fill="#511797" rx="5.941" ry="1.708" transform="rotate(174.138 432.714 554.338)"/><ellipse cx="546.738" cy="559.822" fill="#511797" rx="5.941" ry="1.708" transform="rotate(174.138 546.738 559.822)"/><ellipse cx="702.055" cy="566.478" fill="#511797" rx="5.941" ry="1.708" transform="rotate(174.138 702.055 566.478)"/><ellipse cx="912.415" cy="462.373" fill="#511797" rx="5.941" ry="1.708" transform="rotate(174.138 912.415 462.373)"/><ellipse cx="331.464" cy="516.112" fill="#511797" rx="26.734" ry="11.972" transform="rotate(174.138 331.464 516.112)"/><ellipse cx="495.808" cy="558.173" fill="#511797" rx="26.734" ry="8.551" transform="rotate(174.138 495.808 558.173)"/><ellipse cx="561.149" cy="535.714" fill="#511797" rx="26.734" ry="8.551" transform="rotate(174.138 561.149 535.714)"/><ellipse cx="884.962" cy="480.394" fill="#511797" rx="11.882" ry="5.131" transform="rotate(174.138 884.962 480.394)"/><ellipse cx="563.958" cy="582.123" fill="#511797" rx="26.734" ry="8.551" transform="rotate(174.138 563.958 582.123)"/></svg>
